X:1
T:New Orleans, 87.87 D
T:New Orleans, 87.87 D
T:Charles Spurgeon Brown, 1899
T:Public Domain Courtesy of the Cyber Hymnal™
C:Charles Spurgeon Brown, 1899
Z:Public Domain
Z:Courtesy of the Cyber Hymnal™
%%score ( 1 2 ) ( 3 4 )
L:1/8
Q:1/4=95
M:6/8
K:Db
V:1 treble 
V:2 treble 
V:3 bass 
V:4 bass 
V:1
 [DF]2 [DA] [CG]2 [CB] | [DA]2 [Fd] (ed)[GB] | [Dd]2 D [DG]2 [DF] | [CE]2 [=B,=D] [CE]2 z | %4
 [DF]2 [DA] [CG]2 [CB] | [DA]2 [Fd] (ed)[GB] | [Dd]2 D [DG]2 [DF] | [CF]2 [CE] D2 z | %8
 [CE]2 [CF] [CG]2 (F/G/) | [GB]2 [GA] [FA]2 [DF] | [CE]2 [CF] [CG]2 (F/G/) | [GB]2 [GA] [FA]2 z | %12
 [DF]2 [DA] [CG]2 [CB] | [DA]2 [Fd] (ed)[GB] | [Dd]2 D [DG]2 [DF] | [CF]2 [CE] D2 z |] %16
V:2
 x6 | x3 G2 x | x2 D x3 | x6 | x6 | x3 G2 x | x2 D x3 | x3 D2 x | x5 C | x6 | x5 C | x6 | x6 | %13
 x3 G2 x | x2 D x3 | x3 D2 x |] %16
V:3
 [D,A,]2 [F,A,] [E,A,]2 [G,A,] | [F,A,]2 [D,A,] [G,B,]2 [G,D] | [F,A,]2 [F,A,] [G,B,]2 A, | %3
 [A,,A,]2 [A,,A,] [A,,A,]2 z | [D,A,]2 [F,A,] [E,A,]2 [G,A,] | [F,A,]2 [D,A,] [G,B,]2 [G,D] | %6
 [F,A,]2 [F,A,] [G,B,]2 A, | [A,,A,]2 [A,,G,] [D,F,]2 z | [A,,A,]2 [A,,E,] [A,,E,]2 [A,,A,] | %9
 [A,,C]2 [A,,C] [D,D]2 [D,A,] | [A,,A,]2 [A,,E,] [A,,E,]2 [A,,A,] | [A,,C]2 [A,,C] [D,D]2 z | %12
 [D,A,]2 [F,A,] [E,A,]2 [G,A,] | [F,A,]2 [D,A,] [G,B,]2 [G,D] | [F,A,]2 [F,A,] [G,B,]2 A, | %15
 [A,,A,]2 [A,,G,] [D,F,]2 z |] %16
V:4
 x6 | x6 | x5 A, | x6 | x6 | x6 | x5 A, | x6 | x6 | x6 | x6 | x6 | x6 | x6 | x5 A, | x6 |] %16

